X: 1
T: Jimmy Byrne's
M: 4/4
L: 1/8
K: G
G,2 DG, B,DG,B,|DG,B,D CA,DB,|G,2 DG, B,CDE|DB,CA, B,/C/B, A,B,|
G,B,DG, B,DG,B,|DG,B,D CEDB,|G,B,DG, B,CDE|DB,CA, B,G,G,A,||
B,EED B,E^CE|D2 FD A,DFD|EFGF EFGA|BGAF GFED|
EBGE B,E^CE|DEFG ABAF|GABc dedB|cAdc BGAF||
